packages/ui-icons/src/Basic/32/Many-people_32.svg

<svg xmlns="http://www.w3.org/2000/svg" viewBox="0 0 40 40"><path d="M7 18a5 5 0 1 0-5-5 5 5 0 0 0 5 5Zm0-8a3 3 0 1 1-3 3 3 3 0 0 1 3-3Zm26-2a5 5 0 1 0 5 5 5 5 0 0 0-5-5Zm0 8a3 3 0 1 1 3-3 3 3 0 0 1-3 3Zm-13 2a6 6 0 1 0-6-6 6 6 0 0 0 6 6Zm0-10a4 4 0 1 1-4 4 4 4 0 0 1 4-4Zm-4.61 26h9.38l1.39-12.68-.71-.32a14.42 14.42 0 0 0-10.74 0l-.71.28ZM24 22.64 23 32h-5.82l-1-9.36a12.33 12.33 0 0 1 7.82 0Zm-12.84-2.13-.72-.15a16 16 0 0 0-6.68 0l-.76.15L2 32h10.19ZM4.19 30l.7-7.82a13.91 13.91 0 0 1 4.41 0L10 30Zm32.06-9.65a15.12 15.12 0 0 0-6.5 0l-.72.15L28 32h10l-1-11.49ZM30.19 30l.7-7.82a12.77 12.77 0 0 1 4.22 0l.7 7.82Z"/></svg>

<svg id="Ready" xmlns="http://www.w3.org/2000/svg" viewBox="0 0 40 40"><title>Megaicons_work_32_1.8_cp</title><path d="M7,18a5,5,0,1,0-5-5A5,5,0,0,0,7,18Zm0-8a3,3,0,1,1-3,3A3,3,0,0,1,7,10ZM33,8a5,5,0,1,0,5,5A5,5,0,0,0,33,8Zm0,8a3,3,0,1,1,3-3A3,3,0,0,1,33,16ZM20,18a6,6,0,1,0-6-6A6,6,0,0,0,20,18ZM20,8a4,4,0,1,1-4,4A4,4,0,0,1,20,8ZM15.39,34h9.38l1.39-12.68L25.45,21a14.42,14.42,0,0,0-10.74,0l-.71.28ZM24,22.64,23,32H17.18l-1-9.36A12.33,12.33,0,0,1,24,22.64ZM11.16,20.51l-.72-.15a16,16,0,0,0-6.68,0L3,20.51,2,32H12.19ZM4.19,30l.7-7.82a13.91,13.91,0,0,1,4.41,0L10,30Zm32.06-9.65a15.12,15.12,0,0,0-6.5,0l-.72.15L28,32H38L37,20.51ZM30.19,30l.7-7.82a12.77,12.77,0,0,1,4.22,0l.7,7.82Z"/></svg>
